wordpress/wp-content/themes/bluearrow-2017/assets/images/squiggle.svg

<svg width="382" height="25" viewBox="0 0 382 25" xmlns="http://www.w3.org/2000/svg"><title>squiggle</title><path d="M375.98 24c-7.67 0-11.58-4.58-14.44-7.93-2.58-3-3.7-4.07-6.08-4.07s-3.5 1.06-6.08 4.07c-2.86 3.34-6.78 7.93-14.44 7.93-7.66 0-11.58-4.58-14.44-7.92-2.58-3-3.7-4.08-6.08-4.08s-3.5 1.06-6.08 4.08c-2.86 3.34-6.78 7.92-14.44 7.92-7.66 0-11.58-4.58-14.44-7.92-2.58-3-3.7-4.08-6.08-4.08s-3.5 1.06-6.08 4.07c-2.86 3.34-6.78 7.93-14.44 7.93-7.66 0-11.58-4.58-14.44-7.93-2.58-3-3.7-4.07-6.08-4.07s-3.5 1.06-6.08 4.07c-2.86 3.34-6.78 7.93-14.44 7.93-7.66 0-11.58-4.58-14.44-7.92-2.58-3-3.7-4.08-6.08-4.08s-3.5 1.06-6.08 4.08c-2.86 3.34-6.78 7.92-14.44 7.92-7.66 0-11.58-4.58-14.44-7.92-2.58-3-3.7-4.08-6.08-4.08s-3.5 1.06-6.08 4.07c-2.86 3.34-6.78 7.93-14.44 7.93-7.66 0-11.58-4.58-14.45-7.92-2.58-3-3.7-4.08-6.09-4.08-2.39 0-3.5 1.06-6.09 4.08-2.86 3.34-6.78 7.92-14.45 7.92-7.67 0-11.58-4.58-14.45-7.92-2.58-3-3.7-4.08-6.09-4.08-2.39 0-3.5 1.06-6.09 4.08C59.17 19.42 55.25 24 47.58 24c-7.67 0-11.59-4.58-14.45-7.92-2.58-3-3.7-4.08-6.09-4.08-2.39 0-3.51 1.06-6.09 4.08C18.09 19.42 14.17 24 6.5 24a5.5 5.5 0 0 1 0-11c2.39 0 3.51-1.06 6.09-4.08C15.45 5.58 19.37 1 27.04 1c7.67 0 11.58 4.58 14.45 7.92 2.58 3 3.7 4.08 6.09 4.08 2.39 0 3.5-1.06 6.09-4.08C56.53 5.58 60.45 1 68.12 1c7.67 0 11.58 4.58 14.45 7.92 2.58 3 3.7 4.08 6.09 4.08 2.39 0 3.5-1.06 6.09-4.08C97.61 5.58 101.53 1 109.2 1c7.67 0 11.58 4.58 14.45 7.92 2.58 3 3.7 4.08 6.09 4.08 2.39 0 3.5-1.06 6.08-4.08C138.68 5.58 142.6 1 150.26 1c7.66 0 11.58 4.58 14.44 7.92 2.58 3 3.7 4.08 6.08 4.08s3.5-1.06 6.08-4.07C179.72 5.59 183.64 1 191.3 1c7.66 0 11.58 4.58 14.44 7.92 2.58 3 3.7 4.08 6.08 4.08s3.5-1.06 6.08-4.08C220.76 5.58 224.68 1 232.34 1c7.66 0 11.58 4.58 14.44 7.92 2.58 3 3.7 4.08 6.08 4.08s3.5-1.06 6.08-4.07C261.8 5.59 265.72 1 273.38 1c7.66 0 11.58 4.58 14.44 7.92 2.58 3 3.7 4.08 6.08 4.08s3.5-1.06 6.08-4.07C302.84 5.59 306.76 1 314.42 1c7.66 0 11.58 4.58 14.44 7.93 2.58 3 3.7 4.07 6.08 4.07s3.5-1.06 6.08-4.08C343.88 5.58 347.8 1 355.46 1c7.66 0 11.58 4.58 14.44 7.93 2.58 3 3.7 4.07 6.08 4.07a5.5 5.5 0 0 1 0 11z" fill="#FFF" fill-rule="evenodd"/></svg>

<?xml version="1.0" encoding="UTF-8"?>
<svg width="382px" height="25px" viewBox="0 0 382 25" version="1.1" xmlns="http://www.w3.org/2000/svg" xmlns:xlink="http://www.w3.org/1999/xlink">
    <!-- Generator: Sketch 41.2 (35397) - http://www.bohemiancoding.com/sketch -->
    <title>squiggle</title>
    <desc>Created with Sketch.</desc>
    <defs></defs>
    <g id="export" stroke="none" stroke-width="1" fill="none" fill-rule="evenodd">
        <g id="squiggle" fill="#FFFFFF">
            <path d="M375.98,24 C368.31,24 364.4,19.42 361.54,16.07 C358.96,13.07 357.84,12 355.46,12 C353.08,12 351.96,13.06 349.38,16.07 C346.52,19.41 342.6,24 334.94,24 C327.28,24 323.36,19.42 320.5,16.08 C317.92,13.08 316.8,12 314.42,12 C312.04,12 310.92,13.06 308.34,16.08 C305.48,19.42 301.56,24 293.9,24 C286.24,24 282.32,19.42 279.46,16.08 C276.88,13.08 275.76,12 273.38,12 C271,12 269.88,13.06 267.3,16.07 C264.44,19.41 260.52,24 252.86,24 C245.2,24 241.28,19.42 238.42,16.07 C235.84,13.07 234.72,12 232.34,12 C229.96,12 228.84,13.06 226.26,16.07 C223.4,19.41 219.48,24 211.82,24 C204.16,24 200.24,19.42 197.38,16.08 C194.8,13.08 193.68,12 191.3,12 C188.92,12 187.8,13.06 185.22,16.08 C182.36,19.42 178.44,24 170.78,24 C163.12,24 159.2,19.42 156.34,16.08 C153.76,13.08 152.64,12 150.26,12 C147.88,12 146.76,13.06 144.18,16.07 C141.32,19.41 137.4,24 129.74,24 C122.08,24 118.16,19.42 115.29,16.08 C112.71,13.08 111.59,12 109.2,12 C106.81,12 105.7,13.06 103.11,16.08 C100.25,19.42 96.33,24 88.66,24 C80.99,24 77.08,19.42 74.21,16.08 C71.63,13.08 70.51,12 68.12,12 C65.73,12 64.62,13.06 62.03,16.08 C59.17,19.42 55.25,24 47.58,24 C39.91,24 35.99,19.42 33.13,16.08 C30.55,13.08 29.43,12 27.04,12 C24.65,12 23.53,13.06 20.95,16.08 C18.09,19.42 14.17,24 6.5,24 C3.46243388,24 1,21.5375661 1,18.5 C1,15.4624339 3.46243388,13 6.5,13 C8.89,13 10.01,11.94 12.59,8.92 C15.45,5.58 19.37,1 27.04,1 C34.71,1 38.62,5.58 41.49,8.92 C44.07,11.92 45.19,13 47.58,13 C49.97,13 51.08,11.94 53.67,8.92 C56.53,5.58 60.45,1 68.12,1 C75.79,1 79.7,5.58 82.57,8.92 C85.15,11.92 86.27,13 88.66,13 C91.05,13 92.16,11.94 94.75,8.92 C97.61,5.58 101.53,1 109.2,1 C116.87,1 120.78,5.58 123.65,8.92 C126.23,11.92 127.35,13 129.74,13 C132.13,13 133.24,11.94 135.82,8.92 C138.68,5.58 142.6,1 150.26,1 C157.92,1 161.84,5.58 164.7,8.92 C167.28,11.92 168.4,13 170.78,13 C173.16,13 174.28,11.94 176.86,8.93 C179.72,5.59 183.64,1 191.3,1 C198.96,1 202.88,5.58 205.74,8.92 C208.32,11.92 209.44,13 211.82,13 C214.2,13 215.32,11.94 217.9,8.92 C220.76,5.58 224.68,1 232.34,1 C240,1 243.92,5.58 246.78,8.92 C249.36,11.92 250.48,13 252.86,13 C255.24,13 256.36,11.94 258.94,8.93 C261.8,5.59 265.72,1 273.38,1 C281.04,1 284.96,5.58 287.82,8.92 C290.4,11.92 291.52,13 293.9,13 C296.28,13 297.4,11.94 299.98,8.93 C302.84,5.59 306.76,1 314.42,1 C322.08,1 326,5.58 328.86,8.93 C331.44,11.93 332.56,13 334.94,13 C337.32,13 338.44,11.94 341.02,8.92 C343.88,5.58 347.8,1 355.46,1 C363.12,1 367.04,5.58 369.9,8.93 C372.48,11.93 373.6,13 375.98,13 C379.017566,13 381.48,15.4624339 381.48,18.5 C381.48,21.5375661 379.017566,24 375.98,24 Z" id="Shape"></path>
        </g>
    </g>
</svg>
